X: 1
T: Kenmure's On and Awa'
B: NEFR
R: jig
Z: 2009 John Chambers <jc:trillian.mit.edu>
M: 6/8
L: 1/8
K: A
e \
| "A"Ace aec | "A"efe     e2c | "A"Ace     aec | "Bm"BcB "E7"B2c \
| "A"Ace aec | "A"efg  "D"agf | "A"edc "E7"dcB |  "A"ABA     A2 :|
|: e \
| "A"a2e fec | "A"efe "E7"e2g | "A"a2e     fec | "Bm"BcB "E7"B2e \
| "A"a2e fec | "A"efg  "D"agf | "A"edc "E7"dcB |  "A"ABA     A2 :|
